assets/icons/icon_svg/JobList_icon_on.svg

<svg enable-background="new 0 0 192 192" viewBox="0 0 192 192" xmlns="http://www.w3.org/2000/svg"><path d="m0 0h192v192h-192z" fill="none"/><path d="m172.3 55.3-49.9-49.9c-1.3-1.3-3.2-2.1-5-2.1h-85.6c-7.9 0-14.3 6.4-14.3 14.3v156.8c0 7.9 6.4 14.3 14.3 14.3h128.3c7.9 0 14.3-6.4 14.3-14.3v-114c0-1.9-.7-3.8-2.1-5.1zm-104.8 5.3h23.7c3.6 0 6.5 2.9 6.5 6.5s-2.9 6.5-6.5 6.5h-23.7c-3.6 0-6.5-2.9-6.5-6.5s2.9-6.5 6.5-6.5zm57 70.5h-57c-3.6 0-6.5-2.9-6.5-6.5s2.9-6.5 6.5-6.5h57c3.6 0 6.5 2.9 6.5 6.5s-2.9 6.5-6.5 6.5zm0-28.5h-57c-3.6 0-6.5-2.9-6.5-6.5s2.9-6.5 6.5-6.5h57c3.6 0 6.5 2.9 6.5 6.5s-2.9 6.5-6.5 6.5zm-7.1-42.2v-36.5l36.5 36.5z"/></svg>

<?xml version="1.0" encoding="utf-8"?>
<!-- Generator: Adobe Illustrator 25.4.1, SVG Export Plug-In . SVG Version: 6.00 Build 0)  -->
<svg version="1.1" id="レイヤー_1" xmlns="http://www.w3.org/2000/svg" xmlns:xlink="http://www.w3.org/1999/xlink" x="0px"
	 y="0px" viewBox="0 0 192 192" style="enable-background:new 0 0 192 192;" xml:space="preserve">
<style type="text/css">
	.st0{fill:none;}
</style>
<g id="レイヤー_1_00000030446742421648341890000011288254913603741878_">
</g>
<g id="_x31_">
	<rect class="st0" width="192" height="192"/>
	<path d="M172.3,55.3L122.4,5.4c-1.3-1.3-3.2-2.1-5-2.1H31.8c-7.9,0-14.3,6.4-14.3,14.3v156.8c0,7.9,6.4,14.3,14.3,14.3h128.3
		c7.9,0,14.3-6.4,14.3-14.3v-114C174.4,58.5,173.7,56.6,172.3,55.3z M67.5,60.6h23.7c3.6,0,6.5,2.9,6.5,6.5s-2.9,6.5-6.5,6.5H67.5
		c-3.6,0-6.5-2.9-6.5-6.5S63.9,60.6,67.5,60.6z M124.5,131.1h-57c-3.6,0-6.5-2.9-6.5-6.5s2.9-6.5,6.5-6.5h57c3.6,0,6.5,2.9,6.5,6.5
		C131,128.2,128.1,131.1,124.5,131.1z M124.5,102.6h-57c-3.6,0-6.5-2.9-6.5-6.5s2.9-6.5,6.5-6.5h57c3.6,0,6.5,2.9,6.5,6.5
		S128.1,102.6,124.5,102.6z M117.4,60.4V23.9l36.5,36.5H117.4z"/>
</g>
</svg>
